src/icons/IconFolders/IconFolders_size_s.svg

<svg viewBox="0 0 16 16" xmlns="http://www.w3.org/2000/svg">
  <path
    d="M5 1C4.44772 1 4 1.44772 4 2V10C4 10.5523 4.44772 11 5 11H15C15.5523 11 16 10.5523 16 10V3C16 2.44772 15.5523 2 15 2H9C9 1.44772 8.55228 1 8 1H5Z"
  />
  <path
    d="M3 5H2C1.44772 5 1 5.44772 1 6V13C1 13.5523 1.44771 14 2 14H12C12.5523 14 13 13.5523 13 13V12H4C3.44772 12 3 11.5523 3 11V5Z"
  />
</svg>

<svg viewBox="0 0 16 16" xmlns="http://www.w3.org/2000/svg">
  <path d="M5 1a1 1 0 00-1 1v8a1 1 0 001 1h10a1 1 0 001-1V3a1 1 0 00-1-1H9a1 1 0 00-1-1H5z" />
  <path d="M3 5H2a1 1 0 00-1 1v7a1 1 0 001 1h10a1 1 0 001-1v-1H4a1 1 0 01-1-1V5z" />
</svg>
